X:95
T:Kelly's Jig
T:The Killimer  
B:CRE1.011 (Port Ui Cheallaigh)
F:file ID: cre.1/095kellys
S:Pat Brophy
C:Sean Ryan 
M:6/8
Q:160
R:jig
K:G
A|DEF GFG|BAG ABc|d^cd fef|ded cAF|
DEF GFG|BAG ABc|d^cd gf/e/d|cAF G2:|
d|GBd gfg|dgb gdB|GBd gfg|fed cAF|
GBd gfg|dgb gdB|GBd gf/e/d|cAF G2:|

%%%

